X: 1
T: Delvine Side
C: Daniel Dow of Kirk Michael ca.1775
B: RSCDS 2-9
B: "Originally Ours" p.8
B: Alexander McGlashan's 1780 collection p.30
Z: 1999 John Chambers <jc:trillian.mit.edu>
L: 1/16
M: C
K: Edor
B4 \
|:"Em"E3e dcBc   dE3    B3A  |"Em"[B2E2]>e2 dcBc "D"dD3 A3F  \
| "Em"E3e dcBc   dE3 [G3E3]g | "D"fa3    "A"e3f "Bm"d3B AF3  :|
||"Em"BE3 B3A    B3E    Be3  |    BE3       B3A  "D"d3B AF3  \
| "Em"BE3 B3A    B3E    Bg3  | "D"fa3    "A"e3f "Bm"d3B AF3  ||
||"Em"BE3 B3A    B3E    Be3  |    BE3       B3A  "D"d3B AF3  \
|  "C"E3F G3A "G"B3A    Bg3  | "D"fa3    "A"e3f "Bm"Hd3F BAGF |] "Em"HE8 |]
